/* XPM */
static char *close_prelight[] = {
/* columns rows colors chars-per-pixel */
"34 26 64 1 ",
"  c #020101",
". c #331117",
"X c #341117",
"o c #722633",
"O c #772835",
"+ c #772836",
"@ c #8B2E3F",
"# c #8C2F3F",
"$ c #8F303F",
"% c #8C2F40",
"& c #8D2F40",
"* c #8E3040",
"= c #8F3040",
"- c #8F3041",
"; c #903041",
": c #923141",
"> c #933142",
", c #9C3446",
"< c #9D3547",
"1 c #9E3547",
"2 c #9F3547",
"3 c #A33749",
"4 c #A43749",
"5 c #A53749",
"6 c #A4374A",
"7 c #A5374A",
"8 c #A6374A",
"9 c #A7384A",
"0 c #A7384B",
"q c #B03B4F",
"w c #B13B4F",
"e c #B23B4F",
"r c #B23B50",
"t c #B33B50",
"y c #B53D51",
"u c #B63D52",
"i c #B73D52",
"p c #B93E53",
"a c #BA3E53",
"s c #BA3E54",
"d c #BB3E54",
"f c #BB3F54",
"g c #BC3F54",
"h c #BE4055",
"j c #BF4056",
"k c #C04056",
"l c #C24157",
"z c #C74359",
"x c #C8435A",
"c c #C9445A",
"v c #D1465E",
"b c #D5475F",
"n c #D84861",
"m c #DE4A64",
"M c #DF4A64",
"N c #E24B65",
"B c #E34C66",
"V c #EB4E6A",
"C c #EC4F6A",
"Z c #ED4F6A",
"A c #EE4F6B",
"S c #F1506C",
"D c #F2516D",
"F c #F3516D",
/* pixels */
"FFFFFFFFFFFFZNnbvvbnNZFFFFFFFFFFFF",
"FFFFFFFFFFVnze,>@@>1eznCFFFFFFFFFF",
"FFFFFFFFDmx7&1qpkkpq1#5xmDFFFFFFFF",
"FFFFFFFSns$4jllllllllh4$dnSFFFFFFF",
"FFFFFFDnw=illllllllllllu*enDFFFFFF",
"FFFFFFmf;fllllllllllllllf*dMFFFFFF",
"FFFFFVx$illllllllllllllllu$xCFFFFF",
"FFFFFn76llllllllllllllllll38nFFFFF",
"FFFFZz&jlllllkllllllklllllh%xZFFFF",
"FFFFNw1lllllk.OllllO.klllll<eBFFFF",
"FFFFn1qllllll+ oll+ ollllllq1nFFFF",
"FFFFb:alllllll+ o+ olllllllp>bFFFF",
"FFFFv#jllllllllO  Ollllllllj#vFFFF",
"FFFFv#jllllllllO  Ollllllllj#vFFFF",
"FFFFb>alllllll+ o+ olllllllp>bFFFF",
"FFFFn1qllllll+ oll+ ollllllq2nFFFF",
"FFFFNe1lllllkXOllllO.klllll<rBFFFF",
"FFFFZz%hlllllkllllllklllllh%xAFFFF",
"FFFFFn74llllllllllllllllll39nFFFFF",
"FFFFFCx$ulllllllllllllllly$xCFFFFF",
"FFFFFFmg-fllllllllllllllf*dMFFFFFF",
"FFFFFFDne-ulllllllllllly-tnDFFFFFF",
"FFFFFFFSnd$3hllllllllh3$dnSFFFFFFF",
"FFFFFFFFDmc0%<qpjjpq<%7xMDFFFFFFFF",
"FFFFFFFFFFCnxt1>##>1rxnCFFFFFFFFFF",
"FFFFFFFFFFFFZBnbvvbnBAFFFFFFFFFFFF"
};
