/* XPM */
static char *close_active[] = {
/* columns rows colors chars-per-pixel */
"34 26 41 1 ",
"  c #020101",
". c #331117",
"X c #341117",
"o c #722633",
"O c #772835",
"+ c #772836",
"@ c #C04056",
"# c #C14157",
"$ c #C24057",
"% c #C24157",
"& c #C34157",
"* c #C24158",
"= c #C34158",
"- c #C44158",
"; c #C54159",
": c #C74259",
"> c #C84359",
", c #C8435A",
"< c #C9435A",
"1 c #CB435B",
"2 c #CA445B",
"3 c #CB445B",
"4 c #CC445B",
"5 c #CD445C",
"6 c #CE455C",
"7 c #CE445D",
"8 c #CF455D",
"9 c #D1465E",
"0 c #D5475F",
"q c #D84861",
"w c #DE4A64",
"e c #DF4A64",
"r c #E24B65",
"t c #E34C66",
"y c #EB4E6A",
"u c #EC4F6A",
"i c #ED4F6A",
"p c #EE4F6B",
"a c #F1506C",
"s c #F2516D",
"d c #F3516D",
/* pixels */
"ddddddddddddirq0990qridddddddddddd",
"ddddddddddyq54:;$$;,45qudddddddddd",
"ddddddddsw7,=%%%%%%%%#>7wsdddddddd",
"dddddddaq5&%%%%%%%%%%%%&5qaddddddd",
"ddddddsq3%%%%%%%%%%%%%%%%4qsdddddd",
"ddddddw6=%%%%%%%%%%%%%%%%%5edddddd",
"dddddy7&%%%%%%%%%%%%%%%%%%&7uddddd",
"dddddq,%%%%%%%%%%%%%%%%%%%%<qddddd",
"ddddi5=%%%%%%@%%%%%%@%%%%%%*7idddd",
"ddddr3%%%%%%@.O%%%%O.@%%%%%%4tdddd",
"ddddq,%%%%%%%+ o%%+ o%%%%%%%,qdddd",
"dddd0-%%%%%%%%+ o+ o%%%%%%%%;0dddd",
"dddd9$%%%%%%%%%O  O%%%%%%%%%$9dddd",
"dddd9&%%%%%%%%%O  O%%%%%%%%%&9dddd",
"dddd0;%%%%%%%%+ o+ o%%%%%%%%;0dddd",
"ddddq,%%%%%%%+ o%%+ o%%%%%%%,qdddd",
"ddddr4%%%%%%@XO%%%%O.@%%%%%%1tdddd",
"ddddi5*%%%%%%@%%%%%%@%%%%%%*7pdddd",
"dddddq,%%%%%%%%%%%%%%%%%%%%<qddddd",
"dddddu7&%%%%%%%%%%%%%%%%%%&7uddddd",
"ddddddw6=%%%%%%%%%%%%%%%%%5edddddd",
"ddddddsq4=%%%%%%%%%%%%%%=4qsdddddd",
"dddddddaq5&%%%%%%%%%%%%&5qaddddddd",
"ddddddddsw82*%%%%%%%%*,7esdddddddd",
"dddddddddduq74,;$$;,17qudddddddddd",
"dddddddddddditq0990qtpdddddddddddd"
};
