/* XPM */
static char *close_pressed[] = {
/* columns rows colors chars-per-pixel */
"34 26 44 1 ",
"  c #020101",
". c #2B0E13",
"X c #2C0F14",
"o c #61202C",
"O c #65222D",
"+ c #66222E",
"@ c #A43749",
"# c #A4374A",
"$ c #A5374A",
"% c #A6374B",
"& c #A6384B",
"* c #A7384B",
"= c #A8394B",
"- c #AC3A4D",
"; c #AD3A4E",
": c #B23B4F",
"> c #B33C50",
", c #B63C51",
"< c #B73D52",
"1 c #B83D52",
"2 c #B83D53",
"3 c #B83E54",
"4 c #BE3F56",
"5 c #BF3F56",
"6 c #BF4056",
"7 c #C44159",
"8 c #C54259",
"9 c #CA445A",
"0 c #CB445B",
"q c #CD445C",
"w c #D1465E",
"e c #D5475F",
"r c #D84861",
"t c #DE4A64",
"y c #DF4A64",
"u c #E24B65",
"i c #E34C66",
"p c #EB4E6A",
"a c #EC4F6A",
"s c #ED4F6A",
"d c #EE4F6B",
"f c #F1506C",
"g c #F2516D",
"h c #F3516D",
/* pixels */
"hhhhhhhhhhhhsurewwerushhhhhhhhhhhh",
"hhhhhhhhhhpr95:;**;>59rahhhhhhhhhh",
"hhhhhhhhgt0<*$$$$$$$$#,0tghhhhhhhh",
"hhhhhhhfr7=$$$$$$$$$$$$=7rfhhhhhhh",
"hhhhhhgr4$$$$$$$$$$$$$$$$5rghhhhhh",
"hhhhhht8%$$$$$$$$$$$$$$$$$7yhhhhhh",
"hhhhhp0=$$$$$$$$$$$$$$$$$$=0ahhhhh",
"hhhhhr<$$$$$$$$$$$$$$$$$$$$1rhhhhh",
"hhhhs9%$$$$$$@$$$$$$@$$$$$$&0shhhh",
"hhhhu4$$$$$$@.O$$$$O.@$$$$$$5ihhhh",
"hhhhr>$$$$$$$+ o$$+ o$$$$$$$>rhhhh",
"hhhhe-$$$$$$$$+ o+ o$$$$$$$$;ehhhh",
"hhhhw*$$$$$$$$$O  O$$$$$$$$$*whhhh",
"hhhhw=$$$$$$$$$O  O$$$$$$$$$=whhhh",
"hhhhe;$$$$$$$$+ o+ o$$$$$$$$;ehhhh",
"hhhhr>$$$$$$$+ o$$+ o$$$$$$$>rhhhh",
"hhhhu5$$$$$$@XO$$$$O.@$$$$$$6ihhhh",
"hhhhs9&$$$$$$@$$$$$$@$$$$$$&0dhhhh",
"hhhhhr<$$$$$$$$$$$$$$$$$$$$2rhhhhh",
"hhhhha0=$$$$$$$$$$$$$$$$$$=0ahhhhh",
"hhhhhht8%$$$$$$$$$$$$$$$$$7yhhhhhh",
"hhhhhhgr5%$$$$$$$$$$$$$$%5rghhhhhh",
"hhhhhhhfr7=$$$$$$$$$$$$=7rfhhhhhhh",
"hhhhhhhhgtq3&$$$$$$$$&<0yghhhhhhhh",
"hhhhhhhhhhar05>;**;>60rahhhhhhhhhh",
"hhhhhhhhhhhhsirewweridhhhhhhhhhhhh"
};
