/* XPM */
static char *close_inactive[] = {
/* columns rows colors chars-per-pixel */
"34 26 34 1 ",
"  c #493135",
". c #6C474D",
"X c #6C484E",
"o c #98656D",
"O c #9B6770",
"+ c #9C6770",
"@ c #CE8995",
"# c #CF8995",
"$ c #CE8A96",
"% c #CF8A96",
"& c #CF8B96",
"* c #D08B95",
"= c #D08996",
"- c #D08997",
"; c #D18997",
": c #D08A96",
"> c #D18A96",
", c #D08B96",
"< c #D18A97",
"1 c #D08B97",
"2 c #D18B98",
"3 c #D48D99",
"4 c #D78F9C",
"5 c #DD93A0",
"6 c #DE94A1",
"7 c #E196A3",
"8 c #E296A3",
"9 c #EA9CAA",
"0 c #EB9DAA",
"q c #EC9DAB",
"w c #ED9EAC",
"e c #F0A0AE",
"r c #F1A0AE",
"t c #F2A1AF",
/* pixels */
"ttttttttttttq743::347qtttttttttttt",
"tttttttttt94@1:*$$*>1@40tttttttttt",
"ttttttttr5$-<::::::::#:$5rtttttttt",
"ttttttte4&&::::::::::::&&4ettttttt",
"ttttttr4%::::::::::::::::14rtttttt",
"tttttt5,<:::::::::::::::::&6tttttt",
"ttttt9$&::::::::::::::::::%$0ttttt",
"ttttt4;::::::::::::::::::::<4ttttt",
"ttttq@<::::::#::::::#::::::=$qtttt",
"tttt7%::::::#.O::::O.#::::::18tttt",
"tttt4>:::::::+ o::+ o:::::::>4tttt",
"tttt3%::::::::+ o+ o::::::::*3tttt",
"tttt:$:::::::::O  O:::::::::$:tttt",
"tttt:&:::::::::O  O:::::::::&:tttt",
"tttt3*::::::::+ o+ o::::::::*3tttt",
"tttt4>:::::::+ o::+ o:::::::>4tttt",
"tttt71::::::#XO::::O.#::::::%8tttt",
"ttttq@=::::::#::::::#::::::=$wtttt",
"ttttt4-::::::::::::::::::::<4ttttt",
"ttttt0$&::::::::::::::::::%$0ttttt",
"tttttt5,<:::::::::::::::::&6tttttt",
"ttttttr41<::::::::::::::<14rtttttt",
"ttttttte4&&::::::::::::%&4ettttttt",
"ttttttttr5%2=::::::::=-$6rtttttttt",
"tttttttttt04$1>*$$*>%$40tttttttttt",
"ttttttttttttq843::348wtttttttttttt"
};
