/* XPM */
static char *hide_pressed[] = {
/* columns rows colors chars-per-pixel */
"34 26 38 1 ",
"  c black",
". c #A4374A",
"X c #A5374A",
"o c #A6374B",
"O c #A6384B",
"+ c #A7384B",
"@ c #A8394B",
"# c #AC3A4D",
"$ c #AD3A4E",
"% c #B23B4F",
"& c #B33C50",
"* c #B63C51",
"= c #B73D52",
"- c #B83D52",
"; c #B83D53",
": c #B83E54",
"> c #BE3F56",
", c #BF3F56",
"< c #BF4056",
"1 c #C44159",
"2 c #C54259",
"3 c #CA445A",
"4 c #CB445B",
"5 c #CD445C",
"6 c #D1465E",
"7 c #D5475F",
"8 c #D84861",
"9 c #DE4A64",
"0 c #DF4A64",
"q c #E24B65",
"w c #E34C66",
"e c #EB4E6A",
"r c #EC4F6A",
"t c #ED4F6A",
"y c #EE4F6B",
"u c #F1506C",
"i c #F2516D",
"p c #F3516D",
/* pixels */
"pppppppppppptq876678qtpppppppppppp",
"ppppppppppe83,%$++$&,38rpppppppppp",
"ppppppppi94=+XXXXXXXX.*49ipppppppp",
"pppppppu81@XXXXXXXXXXXX@18uppppppp",
"ppppppi8>XXXXXXXXXXXXXXXX,8ipppppp",
"pppppp92oXXXXXXXXXXXXXXXXX10pppppp",
"pppppe4@XXXXXXXXXXXXXXXXXX@4rppppp",
"ppppp8=XXXXXXXXXXXXXXXXXXXX-8ppppp",
"ppppt3oXXXXXXXXXXXXXXXXXXXXO4tpppp",
"ppppq>XXXXXXXXXXXXXXXXXXXXXX,wpppp",
"pppp8&XXXXXXXXXXXXXXXXXXXXXX&8pppp",
"pppp7#XXXXXXXXXXXXXXXXXXXXXX$7pppp",
"pppp6+XXXXXXXXXXXXXXXXXXXXXX+6pppp",
"pppp6@XXXXXXXXXXXXXXXXXXXXXX@6pppp",
"pppp7$XXXXXXXXXXXXXXXXXXXXXX$7pppp",
"pppp8&XXXXXXX        XXXXXXX&8pppp",
"ppppq,XXXXXXXXXXXXXXXXXXXXXX<wpppp",
"ppppt3OXXXXXXXXXXXXXXXXXXXXO4ypppp",
"ppppp8=XXXXXXXXXXXXXXXXXXXX;8ppppp",
"pppppr4@XXXXXXXXXXXXXXXXXX@4rppppp",
"pppppp92oXXXXXXXXXXXXXXXXX10pppppp",
"ppppppi8,oXXXXXXXXXXXXXXo,8ipppppp",
"pppppppu81@XXXXXXXXXXXX@18uppppppp",
"ppppppppi95:OXXXXXXXXO=40ipppppppp",
"ppppppppppr84,&$++$&<48rpppppppppp",
"pppppppppppptw876678wypppppppppppp"
};
