/* XPM */
static char *maximize_inactive[] = {
/* columns rows colors chars-per-pixel */
"34 26 29 1 ",
"  c #483034",
". c #CE8995",
"X c #CF8995",
"o c #CE8A96",
"O c #CF8A96",
"+ c #CF8B96",
"@ c #D08B95",
"# c #D08996",
"$ c #D08997",
"% c #D18997",
"& c #D08A96",
"* c #D18A96",
"= c #D08B96",
"- c #D18A97",
"; c #D08B97",
": c #D18B98",
"> c #D48D99",
", c #D78F9C",
"< c #DD93A0",
"1 c #DE94A1",
"2 c #E196A3",
"3 c #E296A3",
"4 c #EA9CAA",
"5 c #EB9DAA",
"6 c #EC9DAB",
"7 c #ED9EAC",
"8 c #F0A0AE",
"9 c #F1A0AE",
"0 c #F2A1AF",
/* pixels */
"00000000000062,>&&>,26000000000000",
"00000000004,.;&@oo@*;.,50000000000",
"000000009<o$-&&&&&&&&X&o<900000000",
"00000008,++&&&&&&&&&&&&++,80000000",
"0000009,O&&&&&&&&&&&&&&&&;,9000000",
"000000<=-&&&&&&&&&&&&&&&&&+1000000",
"000004o+&&&&&&&&&&&&&&&&&&Oo500000",
"00000,%&&&&&&&&&&&&&&&&&&&&-,00000",
"00006.-&&&&&&&&&&&&&&&&&&&&#o60000",
"00002O&&&&&&&        &&&&&&&;30000",
"0000,*&&&&&&& &&&&&& &&&&&&&*,0000",
"0000>O&&&&&&& &&&&&& &&&&&&&@>0000",
"0000&o&&&&&&& &&&&&& &&&&&&&o&0000",
"0000&+&&&&&&& &&&&&& &&&&&&&+&0000",
"0000>@&&&&&&& &&&&&& &&&&&&&@>0000",
"0000,*&&&&&&& &&&&&& &&&&&&&*,0000",
"00002;&&&&&&&        &&&&&&&O30000",
"00006.#&&&&&&&&&&&&&&&&&&&&#o70000",
"00000,$&&&&&&&&&&&&&&&&&&&&-,00000",
"000005o+&&&&&&&&&&&&&&&&&&Oo500000",
"000000<=-&&&&&&&&&&&&&&&&&+1000000",
"0000009,;-&&&&&&&&&&&&&&-;,9000000",
"00000008,++&&&&&&&&&&&&O+,80000000",
"000000009<O:#&&&&&&&&#$o1900000000",
"00000000005,o;*@oo@*Oo,50000000000",
"00000000000063,>&&>,37000000000000"
};
