/* XPM */
static char *maximize_active[] = {
/* columns rows colors chars-per-pixel */
"34 26 35 1 ",
"  c black",
". c #C14157",
"X c #C24057",
"o c #C24157",
"O c #C34157",
"+ c #C24158",
"@ c #C34158",
"# c #C44158",
"$ c #C54159",
"% c #C74259",
"& c #C84359",
"* c #C8435A",
"= c #C9435A",
"- c #CB435B",
"; c #CA445B",
": c #CB445B",
"> c #CC445B",
", c #CD445C",
"< c #CE455C",
"1 c #CE445D",
"2 c #CF455D",
"3 c #D1465E",
"4 c #D5475F",
"5 c #D84861",
"6 c #DE4A64",
"7 c #DF4A64",
"8 c #E24B65",
"9 c #E34C66",
"0 c #EB4E6A",
"q c #EC4F6A",
"w c #ED4F6A",
"e c #EE4F6B",
"r c #F1506C",
"t c #F2516D",
"y c #F3516D",
/* pixels */
"yyyyyyyyyyyyw85433458wyyyyyyyyyyyy",
"yyyyyyyyyy05,>%$XX$*>,5qyyyyyyyyyy",
"yyyyyyyyt61*@oooooooo.&16tyyyyyyyy",
"yyyyyyyr5,OooooooooooooO,5ryyyyyyy",
"yyyyyyt5:oooooooooooooooo>5tyyyyyy",
"yyyyyy6<@ooooooooooooooooo,7yyyyyy",
"yyyyy01OooooooooooooooooooO1qyyyyy",
"yyyyy5*oooooooooooooooooooo=5yyyyy",
"yyyyw,@oooooooooooooooooooo+1wyyyy",
"yyyy8:ooooooo        ooooooo>9yyyy",
"yyyy5*ooooooo oooooo ooooooo*5yyyy",
"yyyy4#ooooooo oooooo ooooooo$4yyyy",
"yyyy3Xooooooo oooooo oooooooX3yyyy",
"yyyy3Oooooooo oooooo oooooooO3yyyy",
"yyyy4$ooooooo oooooo ooooooo$4yyyy",
"yyyy5*ooooooo oooooo ooooooo*5yyyy",
"yyyy8>ooooooo        ooooooo-9yyyy",
"yyyyw,+oooooooooooooooooooo+1eyyyy",
"yyyyy5*oooooooooooooooooooo=5yyyyy",
"yyyyyq1OooooooooooooooooooO1qyyyyy",
"yyyyyy6<@ooooooooooooooooo,7yyyyyy",
"yyyyyyt5>@oooooooooooooo@>5tyyyyyy",
"yyyyyyyr5,OooooooooooooO,5ryyyyyyy",
"yyyyyyyyt62;+oooooooo+*17tyyyyyyyy",
"yyyyyyyyyyq51>*$XX$*-15qyyyyyyyyyy",
"yyyyyyyyyyyyw95433459eyyyyyyyyyyyy"
};
