/* XPM */
static char *maximize_prelight[] = {
/* columns rows colors chars-per-pixel */
"34 26 59 1 ",
"  c black",
". c #8B2E3F",
"X c #8C2F3F",
"o c #8F303F",
"O c #8C2F40",
"+ c #8D2F40",
"@ c #8E3040",
"# c #8F3040",
"$ c #8F3041",
"% c #903041",
"& c #923141",
"* c #933142",
"= c #9C3446",
"- c #9D3547",
"; c #9E3547",
": c #9F3547",
"> c #A33749",
", c #A43749",
"< c #A53749",
"1 c #A4374A",
"2 c #A5374A",
"3 c #A6374A",
"4 c #A7384A",
"5 c #A7384B",
"6 c #B03B4F",
"7 c #B13B4F",
"8 c #B23B4F",
"9 c #B23B50",
"0 c #B33B50",
"q c #B53D51",
"w c #B63D52",
"e c #B73D52",
"r c #B93E53",
"t c #BA3E53",
"y c #BA3E54",
"u c #BB3E54",
"i c #BB3F54",
"p c #BC3F54",
"a c #BE4055",
"s c #BF4056",
"d c #C04056",
"f c #C24157",
"g c #C74359",
"h c #C8435A",
"j c #C9445A",
"k c #D1465E",
"l c #D5475F",
"z c #D84861",
"x c #DE4A64",
"c c #DF4A64",
"v c #E24B65",
"b c #E34C66",
"n c #EB4E6A",
"m c #EC4F6A",
"M c #ED4F6A",
"N c #EE4F6B",
"B c #F1506C",
"V c #F2516D",
"C c #F3516D",
/* pixels */
"CCCCCCCCCCCCMvzlkklzvMCCCCCCCCCCCC",
"CCCCCCCCCCnzg8=*..*;8gzmCCCCCCCCCC",
"CCCCCCCCVxh2+;6rddr6;X<hxVCCCCCCCC",
"CCCCCCCBzyo,sffffffffa,ouzBCCCCCCC",
"CCCCCCVz7#effffffffffffw@8zVCCCCCC",
"CCCCCCxi%iffffffffffffffi@ucCCCCCC",
"CCCCCnhoeffffffffffffffffwohmCCCCC",
"CCCCCz21ffffffffffffffffff>3zCCCCC",
"CCCCMg+sffffffffffffffffffaOhMCCCC",
"CCCCv7;ffffff        ffffff-8bCCCC",
"CCCCz;6ffffff ffffff ffffff6;zCCCC",
"CCCCl&tffffff ffffff ffffffr*lCCCC",
"CCCCkXsffffff ffffff ffffffsXkCCCC",
"CCCCkXsffffff ffffff ffffffsXkCCCC",
"CCCCl*tffffff ffffff ffffffr*lCCCC",
"CCCCz;6ffffff ffffff ffffff6:zCCCC",
"CCCCv8;ffffff        ffffff-9bCCCC",
"CCCCMgOaffffffffffffffffffaOhNCCCC",
"CCCCCz2,ffffffffffffffffff>4zCCCCC",
"CCCCCmhowffffffffffffffffqohmCCCCC",
"CCCCCCxp$iffffffffffffffi@ucCCCCCC",
"CCCCCCVz8$wffffffffffffq$0zVCCCCCC",
"CCCCCCCBzuo>affffffffa>ouzBCCCCCCC",
"CCCCCCCCVxj5O-6rssr6-O2hcVCCCCCCCC",
"CCCCCCCCCCmzh0;*XX*;9hzmCCCCCCCCCC",
"CCCCCCCCCCCCMbzlkklzbNCCCCCCCCCCCC"
};
