/* XPM */
static char *top_right_active[] = {
/* columns rows colors chars-per-pixel */
"8 38 6 1 ",
"  c None",
". c #F3506C",
"X c #F3506D",
"o c #F3516D",
"O c #F2516E",
"+ c #F4526D",
/* pixels */
"+oX     ",
"oooo.   ",
"oooooX  ",
"oooooo. ",
"ooooooo ",
"oooooooO",
"oooooooo",
"oooooooo",
"oooooooo",
"oooooooo",
"oooooooo",
"oooooooo",
"oooooooo",
"oooooooo",
"oooooooo",
"oooooooo",
"oooooooo",
"oooooooo",
"oooooooo",
"oooooooo",
"oooooooo",
"oooooooo",
"oooooooo",
"oooooooo",
"oooooooo",
"oooooooo",
"oooooooo",
"oooooooo",
"oooooooo",
"oooooooo",
"oooooooo",
"oooooooo",
"oooooooo",
"oooooooo",
"oooooooo",
"oooooooo",
"oooooooo",
"oooooooo"
};
