/* XPM */
static char *top_left_inactive[] = {
/* columns rows colors chars-per-pixel */
"8 38 7 1 ",
"  c None",
". c #F1A1AF",
"X c #F2A1AE",
"o c #F2A0AF",
"O c #F3A0AF",
"+ c #F2A1AF",
"@ c #F3A1AF",
/* pixels */
"     OX+",
"   @++++",
"  .+++++",
" @++++++",
" +++++++",
"@+++++++",
"o+++++++",
"++++++++",
"++++++++",
"++++++++",
"++++++++",
"++++++++",
"++++++++",
"++++++++",
"++++++++",
"++++++++",
"++++++++",
"++++++++",
"++++++++",
"++++++++",
"++++++++",
"++++++++",
"++++++++",
"++++++++",
"++++++++",
"++++++++",
"++++++++",
"++++++++",
"++++++++",
"++++++++",
"++++++++",
"++++++++",
"++++++++",
"++++++++",
"++++++++",
"++++++++",
"++++++++",
"++++++++"
};
