/* XPM */
static char *top_left_active[] = {
/* columns rows colors chars-per-pixel */
"8 38 6 1 ",
"  c None",
". c #F3506D",
"X c #F3516D",
"o c #F3526D",
"O c #F3516E",
"+ c #F4526D",
/* pixels */
"     .X+",
"   oXXXX",
"  .XXXXX",
" oXXXXXX",
" XXXXXXX",
"OXXXXXXX",
"XXXXXXXX",
"XXXXXXXX",
"XXXXXXXX",
"XXXXXXXX",
"XXXXXXXX",
"XXXXXXXX",
"XXXXXXXX",
"XXXXXXXX",
"XXXXXXXX",
"XXXXXXXX",
"XXXXXXXX",
"XXXXXXXX",
"XXXXXXXX",
"XXXXXXXX",
"XXXXXXXX",
"XXXXXXXX",
"XXXXXXXX",
"XXXXXXXX",
"XXXXXXXX",
"XXXXXXXX",
"XXXXXXXX",
"XXXXXXXX",
"XXXXXXXX",
"XXXXXXXX",
"XXXXXXXX",
"XXXXXXXX",
"XXXXXXXX",
"XXXXXXXX",
"XXXXXXXX",
"XXXXXXXX",
"XXXXXXXX",
"XXXXXXXX"
};
